X: 1274
T: The Dogs Among the Bushes
M:C|
L:1/8
R:Reel
B:O'Neill's 1274
N:Collected by Ennis
Z:Transcribed by Trish O'Neil
K:G
B>(G {A}(3GFG) D>(G {A}(3GFG)| BGGB cedc|B>(G {A}(3GFG) D>(G {A}(3GFG)|A
FFA =fdcA|
B>(G {A}(3GFG) D>(G {A}(3GFG)|BGGB cedc|BABc de=fd|cAFA =fdcA||
dggf gagf|dgga bgaf|de=fe fgfe|d=feg fdcA|
Bggf gagf|dggf bgag|bgag bgag|d=feg fdcA||


